svgs/sharp-light/headset.svg

<svg xmlns="http://www.w3.org/2000/svg" viewBox="0 0 512 512"><!--! Font Awesome Pro 6.6.0 by @fontawesome - https://fontawesome.com License - https://fontawesome.com/license (Commercial License) Copyright 2024 Fonticons, Inc. --><path d="M32 256C32 132.3 132.3 32 256 32s224 100.3 224 224l0 192.1L352 448s0 0 0 0l0-32-32 0-96 0-32 0 0 32 0 32 0 32 32 0 96 0 32 0 0-32 144 .1 16 0 0-16L512 256C512 114.6 397.4 0 256 0S0 114.6 0 256l0 48 0 16 32 0 0-16 0-48zM320 464l0 16s0 0 0 0s0 0 0 0l-96 0 0-32 96 0 0 16zM96 224l64 0 0 128-64 0 0-128zM64 192l0 32 0 128 0 32 32 0 64 0 32 0 0-32 0-128 0-32-32 0-64 0-32 0zm288 32l64 0 0 128-64 0 0-128zm64-32l-64 0-32 0 0 32 0 128 0 32 32 0 64 0 32 0 0-32 0-128 0-32-32 0z"/></svg>

<svg xmlns="http://www.w3.org/2000/svg" viewBox="0 0 512 512"><!--! Font Awesome Pro 6.4.0 by @fontawesome - https://fontawesome.com License - https://fontawesome.com/license (Commercial License) Copyright 2023 Fonticons, Inc. --><path d="M32 256C32 132.3 132.3 32 256 32s224 100.3 224 224V448.1L352 448v0V416H320 224 192v32 32 32h32 96 32V480l144 .1 16 0v-16V256C512 114.6 397.4 0 256 0S0 114.6 0 256v48 16H32V304 256zM320 464l0 16h0v0H224V448h96v16zM96 224h64V352H96V224zM64 192v32V352v32H96h64 32V352 224 192H160 96 64zm288 32h64V352H352V224zm64-32H352 320v32V352v32h32 64 32V352 224 192H416z"/></svg>
